X:345
T:Smash the Windows
M:6/8
L:1/8
K:D
DED F2A|d2f ecA|G2B F2A|E2G GFE|
DED F2A|d2f ecA|Bgf edc|d3d3:|
a2f d2A|A2a agf|g2e c2A|G2g gfe|
f2d g2e|a2f bag|faf gec|d3d3:|
